X:3
T:Charles's Toothpick
C:T.S. Macdonald
M:C|
L:1/8
K:A
E<A A2 e<A c2 | e>Af>A e>cB<c | E<A A2 e<A c2 | f/g/a e>c d<B B2 |
E<A A2 e<A c2 | e>Af>A g<Aa>A | b>ag<f e>ca>f | e<ca<c A2 [EA]2 ||
a<cb>c d>cB<c  | A<Ec>A d<c B2 | E<A c2 e<c a2 | f>dB<G A2 A2 |
+2+a<cb<c +4+c'>+2+cB<c | d<fe>c d<c B2 | b>ag>f e<ca>f | e<ca<c A2 [A,EA]2 |]


